X:1
T:The Entertainer
T:A rag-time two step
T:Scott Joplin
%%score { 1 | 2 }
L:1/8
M:none
K:C
V:1 treble nm="Piano" snm="Pno."
V:2 bass 
V:1
 d'/e'/c'/ab/g | d/e/c/AB/G | D/E/C/A,B,/A,/_A,/ | G, z [Bg]D/^D/ |: E/cE/ cE/c/- | %5
 c2 z/ c'/d'/^d'/ | e'/c'/d'/[ge']b/[fd'] | [ec']2 z D/^D/ | E/cE/ cE/c/- | c2 z a/g/ | %10
 [c^f]/a/c'/e'd'/c'/a/ | [fd']2 z D/^D/ | E/cE/ cE/c/- | c2 z/ c'/d'/^d'/ | e'/c'/d'/[ge']b/[fd'] | %15
 [ec']2 z c'/d'/ | e'/c'/d'/e'c'/d'/c'/ | e'/c'/d'/e'c'/d'/c'/ | e'/c'/d'/[ge']b/[fd'] |1 %19
 [ec']2 z D/^D/ :|2 [ec']2 z/ e/f/^f/ |: [eg]a/[eg]e/f/^f/ | [eg]a/[eg]e/c/G/ | A/B/c/d/ e/d/c/d/ | %24
 G/e/f/g/ a/g/e/f/ | [eg]a/[eg]e/f/^f/ | [eg]a/[eg]g/a/^a/ | [gb]/[gb][^fb]a/f/d/ | %28
 [Bg]2 z/ e/f/^f/ | [eg]a/[eg]e/f/^f/ | [eg]a/[eg]e/c/G/ | A/B/c/d/ e/d/c/d/ | c2- c/G/^F/G/ | %33
 cA/cA/c/A/ | G/c/e/ge/c/G/ | [^FA][Fc] [=Fe]/[Fd][Ec]/- |1 [Ec]2- [Ec]/e/f/^f/ :|2 %37
 [Ec]2 z D/^D/ || E/cE/ cE/c/- | c2 z/ c'/d'/^d'/ | e'/c'/d'/[ge']b/[fd'] | [ec']2 z D/^D/ | %42
 E/cE/ cE/c/- | c2 z a/g/ | [c^f]/a/c'/e'd'/c'/a/ | [fd']2 z D/^D/ | E/cE/ cE/c/- | %47
 c2 z/ c'/d'/^d'/ | e'/c'/d'/[ge']b/[fd'] | [ec']2 z c'/d'/ | e'/c'/d'/e'c'/d'/c'/ | %51
 e'/c'/d'/e'c'/d'/c'/ | e'/c'/d'/[ge']b/[fd'] | [egc']2 z2 |] %54
V:2
 z4 | z4 | z4 | z2 G, z |: C,[E,C] E,[_B,C] | F,[A,C] E,[G,C] | G,,[E,G,C] G,,[F,G,B,] | %7
 C,[E,G,C] [E,G,C] z | C,[E,C] E,[_B,C] | F,[A,C] E,_E, | D,[A,C] ^F,[A,C] | [G,B,]G,, A,,B,, | %12
 C,[G,C] G,[_B,C] | F,[A,C] E,[G,C] | G,,[E,G,C] G,,[F,G,B,] | C,[E,G,C] [E,G,C] z | %16
 C[EG] _B,[EG] | A,[CF] _A,[CF] | G,[CE] G,,[G,B,] |1 C,G,, A,,B,, :|2 C,G,, C,, z |: %21
 C,[E,G,] G,,[E,G,] | C,[E,G,] G,,[E,G,] | F,,[A,C] F,[_A,C] | E,[G,C] G,,[E,G,] | %25
 C,[E,G,] G,,[E,G,] | C,[E,G,] E,_E, | D,[G,B,] D,[A,C] | [G,B,]F,, E,,D,, | C,,[E,G,] G,,[E,G,] | %30
 C,[E,G,] G,,[E,G,] | F,,[A,C] F,[_A,C] | E,[G,C] C,[_B,C] | [F,A,C][F,A,C] [^F,C^D][F,CD] | %34
 [G,CE][G,CE] [G,CE][G,CE] | [D,C][D,A,] [G,B,][G,B,] |1 C,G,, E,,D,, :|2 C,G,, C,, z || %38
 C,[E,C] E,[_B,C] | F,[A,C] E,[G,C] | G,,[E,G,C] G,,[F,G,B,] | C,[E,G,C] [E,G,C] z | %42
 C,[E,C] E,[_B,C] | F,[A,C] E,_E, | D,[A,C] ^F,[A,C] | [G,B,]G,, A,,B,, | C,[G,C] G,[_B,C] | %47
 F,[A,C] E,[G,C] | G,,[E,G,C] G,,[F,G,B,] | C,[E,G,C] [E,G,C] z | C[EG] _B,[EG] | A,[CF] _A,[CF] | %52
 G,[CE] G,,[G,B,] | C,G,, C,, z |] %54

